X: 38875
T: Sunny Banks, The
R: reel
M: 4/4
K: Dmajor
B|:AFF2 d2cA|B/c/dAF G3B|AFF2 d2cA|1 B/c/dAF DEFB:|2 B/c/dAF D3e||
|:fded cAA2|fdef g2ag|fded cAA2|1 B/c/dAF D3e:|2 B/c/dAF DEFG||"Last" B/c/dAF D3||

